src/assets/images/mastercard.svg

<?xml version="1.0" encoding="UTF-8"?>
<svg width="106px" height="66px" viewBox="0 0 106 66" version="1.1" xmlns="http://www.w3.org/2000/svg" xmlns:xlink="http://www.w3.org/1999/xlink">
    <!-- Generator: Sketch 56.3 (81716) - https://sketch.com -->
    <title>Mastercard_2019_logo</title>
    <desc>Created with Sketch.</desc>
    <g id="Page-1" stroke="none" stroke-width="1" fill="none" fill-rule="evenodd">
        <g id="Mastercard_2019_logo" fill-rule="nonzero">
            <rect id="rect887" fill="#FF5F00" x="37" y="8" width="32" height="51"></rect>
            <path d="M40.4881335,32.9954163 C40.4802146,22.8709931 45.0939644,13.3051556 53,7.05415644 C39.5688892,-3.57896302 20.2812753,-2.03015731 8.69197515,10.6121145 C-2.89732505,23.2543864 -2.89732505,42.7456136 8.69197515,55.3878855 C20.2812753,68.0301573 39.5688892,69.578963 53,58.9458436 C45.0914482,52.6928592 40.4774165,43.1230566 40.4881335,32.9954163 L40.4881335,32.9954163 Z" id="path889" fill="#EB001B"></path>
            <path d="M102.690002,53 L102.690002,52.1714292 L103.19,52.1714292 L103.19,52 L102,52 L102,52.1714292 L102.470001,52.1714292 L102.470001,53 L102.690002,53 Z M105,53 L105,52 L104.639999,52 L104.219999,52.7142852 L103.799999,52 L103.44,52 L103.44,53 L103.7,53 L103.7,52.2428576 L104.09,52.8928574 L104.36,52.8928574 L104.749999,52.2428576 L104.749999,53 L105,53 Z" id="path891" fill="#F79E1B"></path>
            <path d="M106,33.0045825 C106,45.637783 98.8387874,57.1618533 87.5585074,62.6824758 C76.2782274,68.2030982 62.8589909,66.7510546 53,58.9430336 C60.9018673,52.6874049 65.5155447,43.1238749 65.5155447,33 C65.5155447,22.8761251 60.9018673,13.3125951 53,7.05696643 C62.8589908,-0.751054527 76.2782271,-2.20309819 87.558507,3.31752405 C98.8387869,8.83814629 106,20.3622163 106,32.9954167 L106,33.0045825 Z" id="path893" fill="#F79E1B"></path>
        </g>
    </g>
</svg>

<svg xmlns="http://www.w3.org/2000/svg" width="106" height="66" fill-rule="nonzero"><path fill="#ff5f00" d="M37 8h32v51H37z"/><path d="M40.488 32.995C40.48 22.87 45.094 13.305 53 7.054 39.57-3.58 20.28-2.03 8.692 10.612s-11.59 32.133 0 44.776S39.57 69.58 53 58.946c-7.91-6.253-12.523-15.823-12.512-25.95z" fill="#eb001b"/><path d="M102.7 53v-.83h.5V52H102v.17h.47V53h.22zm2.3 0v-1h-.36l-.42.714-.42-.714h-.36v1h.26v-.757l.4.65h.27l.4-.65V53h.25zm1-19.995c0 12.633-7.16 24.157-18.44 29.678A32.56 32.56 0 0 1 53 58.943C60.902 52.687 65.516 43.124 65.516 33S60.902 13.313 53 7.057a32.56 32.56 0 0 1 34.559-3.739C98.84 8.838 106 20.362 106 32.995v.01z" fill="#f79e1b"/></svg>
